X:2
T:the March of the Men of Harlech
T:Gorhoffedd Gwyr Harlech
M:C
L:1/8
%Q:120
C:Trad
S:51 Welsh Airs
R:March
A:Wales
H:From a facsimile c.1840: A Choice Collection of Fifty-One Welsh Airs
H:adapted for The Harp, Piano-Forte, Harpsichord,
H:Violin, or Flute by Edward Jones
H:"Harper to His Late Majesty King George IV, when
H:Prince of Wales".
Z:brian_martin12345@yahoo.com
K:C
%"Majestic"
|:\
c>BAB cdec | fedc BABG | c>BAB cdeg | g<e d>c c4 :|
d>cB>c .d.dz2 | g>fe>f .g.gz2 | g>fe>f g>fe>f | g>fe>f .g.gze | 
f>ag>g f>fe>e | d3/2f/4e/4dc BABG | c>BAB cdeg | g<e d>e c4 :|
